usr/share/icons/biglinux-icons-material/scalable/apps/ubuntuone.svg

<?xml version="1.0" encoding="UTF-8" standalone="no"?>
<svg
   width="24"
   height="24"
   viewBox="0 0 6.349875 6.349875"
   version="1.1"
   id="svg1"
   sodipodi:docname="ubuntuone-client.svg"
   inkscape:version="1.3 (0e150ed6c4, 2023-07-21)"
   xmlns:inkscape="http://www.inkscape.org/namespaces/inkscape"
   xmlns:sodipodi="http://sodipodi.sourceforge.net/DTD/sodipodi-0.dtd"
   xmlns="http://www.w3.org/2000/svg"
   xmlns:svg="http://www.w3.org/2000/svg">
  <defs
     id="defs1">
    <radialGradient
       fx="0"
       fy="0"
       cx="0"
       cy="0"
       r="1"
       gradientUnits="userSpaceOnUse"
       gradientTransform="matrix(0,2.9103579,-2.9103579,0,3.1748146,0.26457421)"
       spreadMethod="pad"
       id="radialGradient41229-5">
      <stop
         style="stop-color:#ff8f69;stop-opacity:1;"
         offset="0"
         id="stop41225-0" />
      <stop
         style="stop-color:#ff5e27;stop-opacity:1;"
         offset="1"
         id="stop41227-3" />
    </radialGradient>
  </defs>
  <sodipodi:namedview
     id="namedview1"
     pagecolor="#ffffff"
     bordercolor="#000000"
     borderopacity="0.25"
     inkscape:showpageshadow="2"
     inkscape:pageopacity="0.0"
     inkscape:pagecheckerboard="0"
     inkscape:deskcolor="#d1d1d1"
     inkscape:zoom="6.8500969"
     inkscape:cx="29.123675"
     inkscape:cy="34.233092"
     inkscape:window-width="2560"
     inkscape:window-height="998"
     inkscape:window-x="0"
     inkscape:window-y="0"
     inkscape:window-maximized="1"
     inkscape:current-layer="svg1" />
  <path
     d="m 2.538066,0.29490721 c 0.031749,0 0.062088,-0.004233 0.091015,-0.012347 0.380287,-0.0250467 0.7605739,-0.0236357 1.1398025,0.002822 0.3443044,0.0275161 0.6776728,0.10195077 1.0004581,0.22436224 C 5.3052004,0.7302264 5.6717292,1.1133355 5.8703392,1.6576609 5.9818148,1.9857377 6.049194,2.3233394 6.0700075,2.6690548 6.0975236,3.1047268 6.0879988,3.5386349 6.0396692,3.9728958 6.0026283,4.277337 5.9239604,4.5694312 5.8026072,4.8505896 5.5778922,5.3384716 5.2127744,5.6746622 4.7086649,5.8591613 4.3005091,5.9970947 3.880359,6.0701183 3.4475092,6.0771737 2.9624493,6.1032788 2.4816227,6.065885 2.0050293,5.9681675 1.1298049,5.7737908 0.58830173,5.239343 0.38440019,4.3655297 0.29761857,3.9728958 0.2574027,3.5746175 0.2658692,3.172106 0.25634439,2.7449006 0.30149905,2.3219283 0.40239151,1.9056588 0.61722893,1.0900526 1.1354493,0.58417928 1.9566997,0.38874424 2.1482543,0.34182572 2.342631,0.31007635 2.538066,0.29490721 Z"
     style="fill:url(#radialGradient41229-5);fill-rule:evenodd;stroke:none;stroke-width:0.352771"
     id="path41231" />
  <path
     d="m 1.9263863,1.5874687 0.011797,2.0928473 c 0,0 -0.011797,0.8753624 0.9264841,1.0597941 0.5387455,0.106176 1.5588212,-0.2013412 1.5588212,-0.2013412 V 1.587862 H 3.6291351 V 3.971317 H 2.8339946 V 2.3826091 H 2.3801905 L 2.9476427,1.587862"
     fill="#ffffff"
     id="path2"
     style="stroke-width:0.393244" />
</svg>

<svg xmlns="http://www.w3.org/2000/svg" width="24" height="24" viewBox="0 0 6.35 6.35"><defs><radialGradient id="a" cx="0" cy="0" r="1" fx="0" fy="0" gradientTransform="rotate(90 1.455 1.72) scale(2.91036)" gradientUnits="userSpaceOnUse" spreadMethod="pad"><stop offset="0" style="stop-color:#ff8f69;stop-opacity:1"/><stop offset="1" style="stop-color:#ff5e27;stop-opacity:1"/></radialGradient></defs><path d="M2.538.295A.335.335 0 0 0 2.63.283c.38-.025.76-.024 1.14.002a3.62 3.62 0 0 1 1 .225c.536.22.903.603 1.101 1.148.112.328.18.665.2 1.011.028.436.018.87-.03 1.304a3.166 3.166 0 0 1-.237.878c-.225.487-.59.824-1.094 1.008a4.125 4.125 0 0 1-1.261.218 5.644 5.644 0 0 1-1.443-.109C1.13 5.774.588 5.24.385 4.366a5.025 5.025 0 0 1-.12-1.194c-.009-.427.036-.85.137-1.266C.617 1.09 1.135.584 1.957.389c.191-.047.386-.079.581-.094Z" style="fill:url(#a);fill-rule:evenodd;stroke:none;stroke-width:.352771"/><path fill="#fff" d="m1.926 1.587.012 2.093s-.012.876.927 1.06c.538.106 1.558-.201 1.558-.201V1.588H3.63V3.97h-.795V2.383H2.38l.568-.795" style="stroke-width:.393244"/></svg>
